X:1
T:Title
%%score 1 2
L:1/8
Q:1/4=75
M:6/8
K:F
V:1 treble nm="Grand Piano, Soprano"
V:2 bass nm="Choir Pad, Lithuania, 11.11.11.11 D"
V:1
 [Fc]/[Fc]<[Fc][FB]/ [FA][CG]<[CF] | [EG][FA][CF]- [CF]/[B,D]/ [A,C]2 | %2
w: By~Eli~G.~Christy,~1894 * * * * * *||
 [A,C][CF]>[CE] [CF][Fd]<[Fc] | [FA]F[EB] [FA] [EG]2 | [Ec]/[Ec]<[Fc][FB]/ [FA][CG]<[CF] | %5
w: |||
 [EG][FA][DF]- [DF]/[B,D]/ [A,C]2 | [A,C][CF]>[CE] [CF][Fd]<[Fc] | [FA][DG]D [CE] [CF]2 | %8
w: |||
 [FA][EG]>[FA] [GB][GB][FA] | [EG][FA]F [Fd] [Fc]2 | [FA][EG]>[FA] [GB][GB][FA] | %11
w: |||
 [EG][FA]F [Fd] [Fc]2 | [Fc][Fc]>[FB] [FA][CG]<[CF] | [EG][FA][DF]- [DF]/[B,D]/ [A,C]2 | %14
w: |||
 [A,C][CF]>[CE] [CF][Fd]<[Fc] | [FA][DG]D [CE] [CF]2- | [CF]6 |] %17
w: |||
V:2
 [F,A,]/[F,A,]<[F,A,][F,D]/ [F,C][F,B,]<[F,A,] | [C,C][F,C][F,A,]- [F,A,]/F,/ F,2 | %2
 F,[F,A,]>[F,G,] [F,A,][F,B,]<[F,A,] | [F,C][A,C][G,C] [F,C] [C,C]2 | %4
 [C,B,]/[C,B,]<[F,A,][F,D]/ [F,C][F,B,]<[F,A,] | [C,C][F,C][F,A,]- [F,A,]/F,/ F,2 | %6
 F,[F,A,]>[F,G,] [F,A,][F,B,]<[F,A,] | [F,C][B,,B,][B,,B,] [C,B,] [F,A,]2 | %8
 [F,C][C,C]>[C,C] [C,C][C,C][C,C] | [C,C][F,C][F,A,] [F,B,] [F,A,]2 | %10
 [F,C][C,C]>[C,C] [C,C][C,C][C,C] | [C,C][F,C][F,A,] [F,B,] [F,A,]2 | %12
 [F,A,][F,A,]>[F,D] [F,C][F,B,]<[F,A,] | [C,C][F,C][F,A,]- [F,A,]/F,/ F,2 | %14
 F,[F,A,]>[F,G,] [F,A,][F,B,]<[F,A,] | [F,C][B,,B,][B,,B,] [C,B,] [F,A,]2- | [F,A,]6 |] %17

